X:1
T:My Brother Sylveste
M:4/4
L:1/4
K:G
 d3/4 c/4| B3/4 B/4 B3/4 B/4 B B| B3 D| B B3/4 B/4 c B| A3| D3/4 D/4|\
 A3/4 A/4 A3/4 A/4 A3/4 A/4 A3/4 A/4| A3 A3/4 A/4| d d e d| B3| d3/4 c/4|\
 B3/4 B/4 B3/4 B/4 B3/4 B/4 B| B3 D3/4 D/4| B3/4 B/4 B c B| A3| D3/4 D/4|\
 A A A A| A D| A3/4 A/4 c B A| G2 z| d3/4 c/4| B B z B| B| z z3/4 D/4 d3/4 c/4|\
 B3/4 B/4 B3/4 B/4 B3/4 B/4 c3/4 B/4| A z3/4 D/4| A3/4 A/4 A3/4 A/4 A3/4 A/4 A3/4 A/4|\
 A c B A| G2 z3/4 D/4| d3/4 c/4| B z z d3/4 d/4| B z z d3/4 d/4| B B3/4 B/4 B3/4 B/4 c3/4 B/4|\
 A| z| A A3/4 A/4 A3/4 A/4 ^G3/4 A/4| d2 A3/4 A/4 d3/4 c/4| B B z A|\
 G2 z||
